shader_type canvas_item;

uniform vec4 color : source_color;
uniform float scale = 0.0;

void fragment() {
	float value = distance(UV, vec2(0.5));
	COLOR = vec4(color.rgb, smoothstep(scale, scale+0.000001, value));
	
}
